X:1
T:I Need the Prayers
T:James David Vaughan, 1908
T:I Need the Prayers
T:Public Domain
T:Public Domain
C:James David Vaughan, 1908
Z:Public Domain
%%score ( 1 2 ) 3
L:1/8
M:4/4
K:C
V:1 treble 
V:2 treble 
V:3 bass 
V:1
 [EG]2 | [EG]3 [DF] [CE][DF][EG][FA] | [EG]6 [CE]2 | [B,D]3 [CE] [DF][CE][B,D][B,E] | C6 [EG]2 | %5
w: 1.~I|need the prayers of those I|love, While|trav- ’ling o’er life’s rug- ged|way, That|
w: 2.~I|need the prayers of those I|love, To|help me in each try- ing|hour, To|
w: 3.~I|want my friends to pray for|me, To|hold me up on wings of|faith, That|
 [EG]3 [DF] [CE][DF][EG][FA] | [EG]6 [CE]2 | [B,D]3 [CE] [DF][CE][B,D][B,E] | C6 || %9
w: may true and faith- ful be,|And live|for Je- sus ev- ery day.||
w: my tempt- ed soul to Him,|That He|may keep me by His pow’r.|I|
w: may walk the nar- row way,|Kept by|our Fa- ther’s glor- ious grace.||
"^Refrain" [EG]2 | [FA]3 [FA] [Fc][Ac][GB][FA] | [EG]6 [CE]2 | [EG]3 [FA] [EG][CE]C[CE] | %13
w: ||||
w: my|friends to pray for me, To|bear my|tempt- ed soul a- bove, And|
w: ||||
 ([CE]4 [B,D]2) [EG]2 | [FA]3 [FA] [Fc][Ac][GB][FA] | [EG]6 [CE]2 | %16
w: |||
w: ter- * cede|with God for me; I need|the prayers|
w: |||
 [B,D]3 [CE] [DF][CE][B,D][B,E] | C6 |] %18
w: ||
w: of those I love. * *||
w: ||
V:2
 x2 | x8 | x8 | x8 | C6 x2 | x8 | x8 | x8 | C6 || x2 | x8 | x8 | x6 C x | x8 | x8 | x8 | x8 | C6 |] %18
w: ||||I||||||||||||||
w: ||||bear||||want||||in-||||||
w: ||||I||||||||||||||
V:3
 [C,C]2 | [C,C]3 [C,G,] [C,G,][C,G,][C,C][C,C] | [C,C]6 [C,G,]2 | %3
 [G,,G,]3 [G,,G,] [G,,A,][G,,G,][G,,F,][G,,G,] | [C,E,]6 [C,C]2 | %5
 [C,C]3 [C,G,] [C,G,][C,G,][C,C][C,C] | [C,C]6 [C,G,]2 | %7
 [G,,G,]3 [G,,G,] [G,,A,][G,,G,][G,,F,][G,,G,] | [C,E,]6 || [C,C]2 | %10
 [F,C]3 [F,C] [F,A,][F,C][F,C][F,C] | [C,C]6 [C,G,]2 | [C,C]3 [C,C] [C,C][C,G,][C,E,][C,G,] | %13
 [G,,G,]6 [C,C]2 | [F,C]3 [F,C] [F,A,][F,C][F,C][F,C] | [C,C]6 [C,G,]2 | %16
 [G,,G,]3 [G,,G,] [G,,A,][G,,G,][G,,F,][G,,G,] | [C,E,]6 |] %18

